!!!OTL: Von Gott will ich nicht lassen.
!!!ARE: Europa, Mitteleuropa, Deutschland
!!!SCT: A0642A
!!!TXL: @@DE
!!!YEM: Copyright 1995, estate of Helmut Schaffrath.
**kern	**text
*M4/2	*
*met(c|)	*
*clefC4	*
*k[b-]	*
*G:dor	*
=1	=1
*>A	*
!LO:TX:a:t=dor.	!
1ryy	.
2ryy	.
{2A	Von
=2	=2
2.B-	Gott
4B-	wil
2B-	ich
2B-	nicht
=3	=3
1c	laſ-
2A}	-ſen,
{2B-	denn
=4	=4
2G	er
2G	leſt
2G	nicht
2F#	von
=5	=5
1G	mir,}
2r}	.
{2A	Fürt
=6	=6
2.B-	mich
4B-	auf
2B-	rech-
2B-	-ter
=7	=7
1c	ſtraſſen,
2A}	.
{2B-	da
=8	=8
2G	ich
2G	ſunſt
2G	jr-
2F#	-ret
=9	=9
0G}	ſehr,
=10||	=10||
{2G	reicht
2A/	mir
2B-	ſei-
2c	-ne
=11	=11
1A	hand,
2r}	.
{2d	den
=12	=12
2d	a-
2d	-bend
2d	als
2d	den
=13	=13
1c	mor-
2d}	-gen
{2d	thut
=14	=14
2B-	er
2c	mich
2B-	wol
2A	ver-
=15	=15
*lig	*
2.F	-ſor-
4G	.
*Xlig	*
2A/}	-gen,
{2B-	ſey
=16	=16
2G	wo
2B-	ich
2A	wöll
2A	im
=17	=17
0G/ll}	land.
==	==
!!!GTL: Geistliche Volkslieder
!!!AGN: Romanze, Ballade, Lied, religioeses Lied
!! Dresdner Cod um 1570
!!!ONB: ESAC (Essen Associative Code) Database: ALTDEU
!!!AMT: simple quadruple
!!!AIN: vox
!!!EED: Helmut Schaffrath
!!!EEV: 1.0
!!!RDF**kern: l = terminal long
!!!AMD: Dorian
!!!URL-scan: https://rosdok.uni-rostock.de/mcrviewer/recordIdentifier/rosdok_ppn738218359/iview2/phys_0824.iview2?x=108.00678923277815&y=294.3639086927287&scale=0.7106933083589261&rotation=0&layout=singlePageLayout&logicalDiv=log_0007
!!!ENC: Anna Maria Matuszewska
!!!EEV: 2024/25/03
*-	*-
